X: 12
T:Kitty's Wedding
M:6/8
L:1/8
C:Traditional, arr. Roger Landes
R:Jig
K:A
EAA cAA|eAA cAA|fga ecA|B{d}/2B{A}B cAF|EAA cAA|eAA cAA|fga ecA|1{d}BB
B A2 F:|2{d}BBB A2 c||eab c'af|ece aec|eab c'ae|d'c'b c'af|eab c'af|ece
aec|fga ecA|1{d}BBB A2 c:|2{d}BBB Acd||{f}eee {f}ecA|dff fga|ecA ecA|B{d
